static/images/icons/write.svg

<svg width="650" height="650" fill="none" xmlns="http://www.w3.org/2000/svg"><path d="M0 325C0 81.25 81.25 0 325 0s325 81.25 325 325-81.25 325-325 325S0 568.75 0 325z" fill="#266DD3"/><g clip-path="url(#clip0)"><path d="M452.289 277.6c-12.689 21.203-32.481 42.81-57.188 41.931-5.765 9.854-11.892 23.408-18.69 39.125l-18.313 7.719c13.065-32.704 31.141-69.247 51.618-97.625-9.352 7.384-24.372 22.85-37.157 38.846-15.327-25.515-4.188-51.52 13.581-72.29.293 8.948 5.011 16.694 8.389 20.589-1.214-7.398-1.591-20.784 2.722-32.816 10.022-10.218 19.039-17.741 29.494-24.567-1.159 6.672 1.116 14.321 3.657 18.997.335-6.839 3.127-19.96 7.272-25.683 12.898-10.148 32.551-19.165 54.326-20.868-1.131 13.582-6.086 35.943-14.293 50.306-7.189 5.639-17.043 9.492-25 11.627 6.882 1.243 14.391 1.075 20.854-.013-3.755 10.371-7.705 19.932-13.93 31.769-9.478 6.532-22.027 10.217-30.751 11.515 6.421 2.611 17.755 3.42 23.409 1.438zm-193.198 53.111l9.003 10.902 66.624-38.958-9.325-10.72-66.302 38.776zm97.15-3.322l-9.324-10.706-67.07 39.195 9.003 10.902 67.391-39.391zm65.311.098c-5.876 2.834-11.878 4.76-17.95 5.556-1.675 3.224-3.434 6.895-5.262 10.789l4.159 4.774c8.696 9.659 6.407 23.785-5.248 31.253-10.79 6.937-74.552 47.123-89.138 56.322-1.033-10.064-4.997-19.416-11.53-27.191-6.546-7.775-85.355-102.957-105.008-128.11-6.547-8.375-8.026-17.378-4.118-25.348 3.741-7.663 11.753-12.814 19.96-12.814 12.828 0 19.654 9.143 21.622 16.96 2.233 8.947-.489 17.182-8.696 23.519l18.551 22.669 108.819-62.059c19.848-14.67 25.432-41.749 12.981-62.994C352.068 166.115 336.141 157 319.126 157c-16.582 0-11.069-.223-133.511 62.464C168.39 227.713 157 244.407 157 264.158c0 12.144 4.299 24.511 12.409 34.715 19.918 25.041 105.539 128.207 106.307 129.212 5.178 6.881 5.96 15.619 2.093 23.352-3.866 7.747-11.334 12.367-19.946 12.367-12.828 0-19.653-9.143-21.622-16.973-2.177-8.78.168-16.862 8.431-23.087l-17.824-21.566c-11.474 9.282-17.825 20.882-19.221 34.086C204.389 467.042 228.913 492 258.058 492c8.319 0 18.3-2.471 25.698-7.119l131.585-82.996c13.358-9.268 20.826-24.86 20.826-40.437 0-10.399-3.35-20.296-9.604-27.959l-5.011-6.002zM310.821 187.038a20.36 20.36 0 018.5-1.87c7.426 0 13.917 3.922 17.351 10.497 4.355 8.319 3.154 20.504-7.649 26.688l-71.146 40.312c-.712-15.201-8.082-29.048-20.31-38.135l73.254-37.492zm29.27 186.805l5.039-12.633 3.476-8.5-48.142 28.154 9.003 10.901 30.624-17.922z" fill="#fff"/></g><defs><clipPath id="clip0"><path fill="#fff" transform="translate(157 157)" d="M0 0h335v335H0z"/></clipPath></defs></svg>

<svg width="650" height="650" viewBox="0 0 650 650" fill="none" xmlns="http://www.w3.org/2000/svg">
<path d="M0 325C0 81.25 81.25 0 325 0C568.75 0 650 81.25 650 325C650 568.75 568.75 650 325 650C81.25 650 0 568.75 0 325Z" fill="#266DD3"/>
<g clip-path="url(#clip0)">
<path d="M452.289 277.6C439.6 298.803 419.808 320.41 395.101 319.531C389.336 329.385 383.209 342.939 376.411 358.656L358.098 366.375C371.163 333.671 389.239 297.128 409.716 268.75C400.364 276.134 385.344 291.6 372.559 307.596C357.232 282.081 368.371 256.076 386.14 235.306C386.433 244.254 391.151 252 394.529 255.895C393.315 248.497 392.938 235.111 397.251 223.079C407.273 212.861 416.29 205.338 426.745 198.512C425.586 205.184 427.861 212.833 430.402 217.509C430.737 210.67 433.529 197.549 437.674 191.826C450.572 181.678 470.225 172.661 492 170.958C490.869 184.54 485.914 206.901 477.707 221.264C470.518 226.903 460.664 230.756 452.707 232.891C459.589 234.134 467.098 233.966 473.561 232.878C469.806 243.249 465.856 252.81 459.631 264.647C450.153 271.179 437.604 274.864 428.88 276.162C435.301 278.773 446.635 279.582 452.289 277.6V277.6ZM259.091 330.711L268.094 341.613L334.718 302.655L325.393 291.935L259.091 330.711ZM356.241 327.389L346.917 316.683L279.847 355.878L288.85 366.78L356.241 327.389ZM421.552 327.487C415.676 330.321 409.674 332.247 403.602 333.043C401.927 336.267 400.168 339.938 398.34 343.832L402.499 348.606C411.195 358.265 408.906 372.391 397.251 379.859C386.461 386.796 322.699 426.982 308.113 436.181C307.08 426.117 303.116 416.765 296.583 408.99C290.037 401.215 211.228 306.033 191.575 280.88C185.028 272.505 183.549 263.502 187.457 255.532C191.198 247.869 199.21 242.718 207.417 242.718C220.245 242.718 227.071 251.861 229.039 259.678C231.272 268.625 228.55 276.86 220.343 283.197L238.894 305.866L347.713 243.807C367.561 229.137 373.145 202.058 360.694 180.813C352.068 166.115 336.141 157 319.126 157C302.544 157 308.057 156.777 185.615 219.464C168.39 227.713 157 244.407 157 264.158C157 276.302 161.299 288.669 169.409 298.873C189.327 323.914 274.948 427.08 275.716 428.085C280.894 434.966 281.676 443.704 277.809 451.437C273.943 459.184 266.475 463.804 257.863 463.804C245.035 463.804 238.21 454.661 236.241 446.831C234.064 438.051 236.409 429.969 244.672 423.744L226.848 402.178C215.374 411.46 209.023 423.06 207.627 436.264C204.389 467.042 228.913 492 258.058 492C266.377 492 276.358 489.529 283.756 484.881L415.341 401.885C428.699 392.617 436.167 377.025 436.167 361.448C436.167 351.049 432.817 341.152 426.563 333.489L421.552 327.487V327.487ZM310.821 187.038C313.445 185.824 316.376 185.168 319.321 185.168C326.747 185.168 333.238 189.09 336.672 195.665C341.027 203.984 339.826 216.169 329.023 222.353L257.877 262.665C257.165 247.464 249.795 233.617 237.567 224.53L310.821 187.038ZM340.091 373.843L345.13 361.21L348.606 352.71L300.464 380.864L309.467 391.765L340.091 373.843V373.843Z" fill="white"/>
</g>
<defs>
<clipPath id="clip0">
<rect width="335" height="335" fill="white" transform="translate(157 157)"/>
</clipPath>
</defs>
</svg>
